packages/core/src/svgs/swftc.svg

<svg width="24" height="24" viewBox="0 0 24 24" fill="none" xmlns="http://www.w3.org/2000/svg">
<g clip-path="url(#clip0_31_19531)">
<path d="M0 0H24V24H0V0Z" fill="#BA8318"/>
<path d="M12.7413 6.85696C13.0943 6.85526 13.4429 6.93478 13.7602 7.08935C14.0776 7.24393 14.3551 7.46942 14.5713 7.74839C13.8513 7.87696 13.7142 8.53696 13.7142 8.98267V14.7812C13.7142 16.247 12.5013 17.0484 11.2585 17.1384C10.8966 17.1622 10.535 17.087 10.2126 16.9209C9.89022 16.7548 9.61914 16.504 9.42847 16.1955C10.0756 15.8955 10.2856 15.4241 10.2856 15.0298V8.98267C10.2856 7.74839 11.5499 6.8741 12.7413 6.85696Z" fill="white"/>
<path d="M8.3356 8.85844C8.66989 8.85844 9.0256 9.02987 9.16275 9.11558C8.25417 8.95701 7.27275 9.44129 7.2256 10.5856C7.17846 11.7342 8.02275 12.2013 8.74275 12.2484C8.95573 12.2601 9.16832 12.2193 9.36186 12.1297C9.5554 12.04 9.72396 11.9042 9.85275 11.7342C9.98989 14.6056 7.71846 15.1756 6.74132 15.2313C5.75989 15.287 3.2956 14.4084 3.43275 11.8627C3.54417 9.82272 4.71846 9.08987 5.23703 8.97415C4.7656 9.56987 4.65846 9.77129 4.55132 10.517C4.4656 11.1084 4.67989 11.7599 4.78275 11.9742C4.73132 11.477 4.68846 11.2413 4.78275 10.847C5.21132 9.11558 6.35989 8.66129 6.88275 8.64844C6.43757 9.05573 6.16214 9.61577 6.11132 10.217C6.09421 10.5203 6.14151 10.8237 6.25009 11.1073C6.35868 11.391 6.52609 11.6484 6.74132 11.8627C6.53276 11.47 6.42941 11.0301 6.44132 10.5856C6.70703 8.93987 7.91132 8.85844 8.3356 8.85844ZM15.6642 8.85844C15.3299 8.85844 14.9742 9.02987 14.837 9.11558C15.7456 8.95701 16.7313 9.44129 16.7742 10.5856C16.8213 11.7342 15.977 12.2013 15.2613 12.2484C15.0476 12.2608 14.8342 12.2204 14.6398 12.1307C14.4455 12.041 14.2762 11.9048 14.147 11.7342C14.0099 14.6056 16.2813 15.1756 17.2627 15.2313C18.2399 15.287 20.7042 14.4084 20.5627 11.8627C20.4556 9.82272 19.277 9.08987 18.7627 8.97415C19.2342 9.56987 19.3413 9.77129 19.4485 10.517C19.5342 11.1084 19.3199 11.7599 19.217 11.9742C19.2685 11.477 19.3113 11.2413 19.217 10.847C18.7885 9.11558 17.6399 8.66129 17.117 8.64844C17.5622 9.05573 17.8376 9.61577 17.8885 10.217C17.9061 10.5199 17.8595 10.8232 17.7517 11.1068C17.6438 11.3904 17.4772 11.648 17.2627 11.8627C17.5499 11.2799 17.5799 10.7699 17.5585 10.5856C17.2927 8.93987 16.0885 8.85844 15.6642 8.85844Z" fill="white"/>
</g>
<defs>
<clipPath id="clip0_31_19531">
<rect width="24" height="24" fill="white"/>
</clipPath>
</defs>
</svg>

<svg xmlns="http://www.w3.org/2000/svg" width="24" height="24" fill="none" viewBox="0 0 24 24"><g clip-path="url(#a)"><path fill="#BA8318" d="M0 0h24v24H0z"/><path fill="#fff" d="M12.741 6.857a2.3 2.3 0 0 1 1.83.891c-.72.129-.857.789-.857 1.235v5.798c0 1.466-1.213 2.267-2.456 2.357a2 2 0 0 1-1.83-.943c.648-.3.858-.77.858-1.165V8.983c0-1.235 1.264-2.109 2.455-2.126"/><path fill="#fff" d="M8.336 8.858c.334 0 .69.172.827.258-.909-.159-1.89.325-1.937 1.47-.048 1.148.797 1.615 1.517 1.662a1.3 1.3 0 0 0 1.11-.514c.137 2.872-2.135 3.442-3.112 3.497-.981.056-3.445-.823-3.308-3.368.111-2.04 1.285-2.773 1.804-2.889-.471.596-.579.797-.686 1.543-.085.591.129 1.243.232 1.457-.052-.497-.095-.733 0-1.127.428-1.731 1.577-2.186 2.1-2.199a2.4 2.4 0 0 0-.772 1.569 2.15 2.15 0 0 0 .63 1.646 2.6 2.6 0 0 1-.3-1.277c.266-1.646 1.47-1.728 1.895-1.728m7.328 0c-.334 0-.69.172-.827.258.909-.159 1.894.325 1.937 1.47.047 1.148-.797 1.615-1.513 1.662a1.3 1.3 0 0 1-1.114-.514c-.137 2.872 2.134 3.442 3.116 3.497.977.056 3.441-.823 3.3-3.368-.107-2.04-1.286-2.773-1.8-2.889.471.596.578.797.685 1.543.086.591-.128 1.243-.231 1.457.052-.497.094-.733 0-1.127-.428-1.731-1.577-2.186-2.1-2.199a2.4 2.4 0 0 1 .771 1.569 2.15 2.15 0 0 1-.625 1.646c.287-.583.317-1.093.295-1.277-.265-1.646-1.47-1.728-1.894-1.728"/></g><defs><clipPath id="a"><path fill="#fff" d="M0 0h24v24H0z"/></clipPath></defs></svg>
